X: 1
T:The Cellphone Goes Too
C:Sarah Gowan 2007 
N: written when I realized my cellphone plays the first two bars of Off She Goes
R: jig
M: 6/8
K: D
"D"FGA "G"GAB | "A7"ABc "D"d3 |"D"FGA "G"GAB | "A7"ABc "D"d2e | 
"D"fdB AFG | "D7"AB=c "G"B2d |1"Bm"fgf "G"edB|"A"ABc "D"dAG:|2"D"fgf "A7"ecA|"G7" =FGF "C"EFE ||
K:Dm
|: "Dm"DEF GAF | GAF "G"G2 c | "Dm"dBA "C"GAG | "Bb"FGF "A7"EFE |
"Dm"DEF GAF | GAF "G"G2 G |1"Dm"FGA "G"GAB | "A7"ABG A3 :|2"Dm"dAF "G"GAG|"A7"FGE "C"CDE||"Dm"D2|]
